X: 159
T: Shepherd's Daughter
M:4/4
L:1/8
Q:160
S:Playford
O:Manuscript
A:English
K:Dm
D2|G3 G ABcA|B3 c B2 d2|c2 B2 ABcA|B4 B2 C2|G3 G ABcA|B3 c B2 d2|c2 B2 A
BcA| B4 B2 C2||d2|c2 B2 ABcB| B3 c B2 d2|c2B2 ABcB| B4 B2 d2|c2 B2 ABcB| B3 c B2 d2|c2B2 ABcB| B4 B2||d2| c3 B A2 c2| B3 A G3 B2| A2 G2 G2 F2|G4
D4| c3 B ABcA| B3 A G2 B2|A2 G2 G2 F2 G4 G4:|

